X: 305842
M: 2/4
L: 1/16
K: G
K: Gm
"Minor."\
(B2A2) (c2B2) | (d2c2) (e2d2) | c2B2A2G2 | ^FGAF D2GA |\
(B2A2) (c2B2) | (d2c2) (e2d2) | c2B2A2G2 | d4 "^D.C."c2 |]



